src/resources/assets/language.svg

<svg xmlns="http://www.w3.org/2000/svg" width="16" height="16"><path d="M 12.5 1.996094 C 12.777344 1.996094 13 2.21875 13 2.496094 L 13 5.003906 L 13.5 5.003906 C 13.777344 5.003906 14 5.226562 14 5.503906 C 14 5.777344 13.777344 6.003906 13.5 6.003906 L 13 6.003906 L 13 10.5 C 13 10.777344 12.777344 11 12.5 11 C 12.222656 11 12 10.777344 12 10.5 L 12 2.496094 C 12 2.21875 12.222656 1.996094 12.5 1.996094 Z M 7.5 2.996094 L 10 2.996094 L 10 4.25 C 10 4.664062 9.84375 4.957031 9.601562 5.15625 C 9.347656 5.367188 8.96875 5.5 8.503906 5.5 C 8.226562 5.5 8.003906 5.722656 8.003906 6 C 8.003906 6.277344 8.226562 6.5 8.503906 6.5 C 9.152344 6.5 9.769531 6.316406 10.238281 5.929688 C 10.714844 5.53125 11 4.953125 11 4.25 L 11 2.496094 C 11 2.363281 10.949219 2.234375 10.855469 2.140625 C 10.761719 2.046875 10.632812 1.996094 10.5 1.996094 L 7.5 1.996094 C 7.222656 1.996094 7 2.21875 7 2.496094 C 7 2.773438 7.222656 2.996094 7.5 2.996094 Z M 6.453125 5.300781 C 6.375 5.117188 6.195312 5 5.996094 5 C 5.796875 5 5.617188 5.117188 5.539062 5.300781 L 2.042969 13.300781 C 1.929688 13.550781 2.046875 13.847656 2.300781 13.957031 C 2.554688 14.070312 2.847656 13.953125 2.957031 13.699219 L 4.136719 11 L 7.835938 11 C 7.84375 11 7.851562 11 7.859375 11 L 9.042969 13.699219 C 9.152344 13.953125 9.449219 14.070312 9.699219 13.957031 C 9.953125 13.847656 10.070312 13.550781 9.957031 13.300781 Z M 7.421875 10 L 4.574219 10 L 5.996094 6.746094 Z M 7.421875 10" fill="#ddd"/></svg>

<svg xmlns="http://www.w3.org/2000/svg" width="16" height="16"><path d="M12.5 1.996c.277 0 .5.223.5.5v2.508h.5a.501.501 0 010 1H13V10.5c0 .277-.223.5-.5.5a.498.498 0 01-.5-.5V2.496c0-.277.223-.5.5-.5zm-5 1H10V4.25c0 .414-.156.707-.398.906-.254.211-.633.344-1.098.344-.277 0-.5.223-.5.5s.223.5.5.5c.648 0 1.266-.184 1.734-.57.477-.399.762-.977.762-1.68V2.496a.502.502 0 00-.145-.355.502.502 0 00-.355-.145h-3c-.277 0-.5.223-.5.5s.223.5.5.5zM6.453 5.301A.495.495 0 005.996 5c-.2 0-.379.117-.457.3l-3.496 8a.495.495 0 00.258.657.494.494 0 00.656-.258L4.137 11h3.722l1.184 2.7c.11.253.406.37.656.257a.495.495 0 00.258-.656zM7.422 10H4.574l1.422-3.254zm0 0" fill="#ddd"/></svg>
